X: 8009
T: Connaughtman's Rambles, The
R: jig
M: 6/8
K: Dmajor
A|:FAA dAA|BAB dAA|FAA dfe|dBA B2A|
FAA dAA|BAB def|afe afe|1 dBA B2A:|2 dBA B2g||
|:fbb faa|fef deg|fbb faa|fed e2g|
fbb faa|fef def|afe afe|1 dBA B2g:|2 dBA B2A||

